resources/icons/20px/output.svg

<svg xmlns="http://www.w3.org/2000/svg" viewBox="0 0 20 20">
  <path d="M0 10c0 5.51 4.49 10 10 10 1.17 0 2.32-.2 3.42-.6.52-.19.79-.76.6-1.28a1 1 0 0 0-1.28-.6c-.88.32-1.8.48-2.74.48-4.41 0-8-3.59-8-8s3.59-8 8-8c.94 0 1.86.16 2.74.48a1 1 0 0 0 1.28-.6 1 1 0 0 0-.6-1.28C12.32.2 11.17 0 10 0 4.49 0 0 4.49 0 10"/>
  <path d="m19.71 9.29-4-4a1.003 1.003 0 0 0-1.42 1.42L16.59 9H5a1 1 0 0 0 0 2h11.59l-2.29 2.29c-.19.18-.3.43-.3.71a1.003 1.003 0 0 0 1.71.71l4-4c.18-.18.29-.43.29-.71s-.11-.53-.29-.71"/>
</svg>

<svg width="20" height="20" viewBox="0 0 20 20" fill="none" xmlns="http://www.w3.org/2000/svg">
<path d="M0 10C0 15.51 4.49 20 10 20C11.17 20 12.32 19.8 13.42 19.4C13.94 19.21 14.21 18.64 14.02 18.12C13.83 17.6 13.26 17.33 12.74 17.52C11.86 17.84 10.94 18 10 18C5.59 18 2 14.41 2 10C2 5.59 5.59 2 10 2C10.94 2 11.86 2.16 12.74 2.48C13.26 2.67 13.83 2.4 14.02 1.88C14.21 1.36 13.94 0.79 13.42 0.6C12.32 0.2 11.17 0 10 0C4.49 0 0 4.49 0 10Z" fill="#111418"/>
<path d="M19.71 9.29L15.71 5.29C15.53 5.11 15.28 5 15 5C14.45 5 14 5.45 14 6C14 6.28 14.11 6.53 14.29 6.71L16.59 9H5C4.44772 9 4 9.44772 4 10C4 10.5523 4.44772 11 5 11H16.59L14.3 13.29C14.11 13.47 14 13.72 14 14C14 14.55 14.45 15 15 15C15.28 15 15.53 14.89 15.71 14.71L19.71 10.71C19.89 10.53 20 10.28 20 10C20 9.72 19.89 9.47 19.71 9.29Z" fill="#111418"/>
</svg>
